src/assets/images/icons/arrow-up-down-line.svg

<svg width="24" height="24" viewBox="0 0 24 24" fill="none" xmlns="http://www.w3.org/2000/svg">
<g clip-path="url(#clip0_58_16300)">
<path d="M11.95 7.95L10.536 9.364L8.00005 6.828V20H6.00005V6.828L3.46505 9.364L2.05005 7.95L7.00005 3L11.95 7.95ZM21.9501 16.05L17 21L12.05 16.05L13.464 14.636L16.001 17.172L16 4H18V17.172L20.536 14.636L21.9501 16.05Z" fill="#181D27"/>
</g>
<defs>
<clipPath id="clip0_58_16300">
<rect width="24" height="24" fill="white"/>
</clipPath>
</defs>
</svg>

<svg xmlns="http://www.w3.org/2000/svg" width="24" height="24" fill="none" viewBox="0 0 24 24"><g clip-path="url(#a)"><path fill="#181d27" d="m11.95 7.95-1.414 1.414L8 6.828V20H6V6.828L3.465 9.364 2.05 7.95 7 3zm10 8.1L17 21l-4.95-4.95 1.414-1.414 2.537 2.536L16 4h2v13.172l2.536-2.536z"/></g><defs><clipPath id="a"><path fill="#fff" d="M0 0h24v24H0z"/></clipPath></defs></svg>
